X: 255
T:Lone Star Rag
M:4/4
L:1/8
Z: Arnold MacDonald's version
K:C
"C"cdeg- gage|agec- cdcA|"F"FGAc- cdcA|dcAc- cdcA|
"G"BdBG- G2A^A|BdBG- G2AB|1"C"cBca- "Cdim"agea|"G7"g8 :|2"C"cBca- age2|"C"c8||
"A7"agea- ageg|agea- age2|"D7"dcAd- dcAc|dcAd- dcA^A|
"G7"BdBG- G2A^A|BdBG- G2AB|"C"cBca- "Cdim"agea|"G7"g4 "E"^g4|
"A7"agea- ageg|agea- agec|"D7"dcAd- dcAc|dcAd- dcA^A|
"G7"BdBG- G2A^A|BdBG- G2AB|"C"cdea- "G7"age2|"C"c8||
